polaris-icons/icons/new-icons/ChecklistMajor.svg

<svg width="20" height="20" viewBox="0 0 20 20" fill="none" xmlns="http://www.w3.org/2000/svg">
<path d="M13.2803 9.21967C13.5732 9.51256 13.5732 9.98744 13.2803 10.2803L9.78033 13.7803C9.48744 14.0732 9.01256 14.0732 8.71967 13.7803L6.96967 12.0303C6.67678 11.7374 6.67678 11.2626 6.96967 10.9697C7.26256 10.6768 7.73744 10.6768 8.03033 10.9697L9.25 12.1893L12.2197 9.21967C12.5126 8.92678 12.9874 8.92678 13.2803 9.21967Z" fill="#4A4A4A"/>
<path fill-rule="evenodd" clip-rule="evenodd" d="M6.51547 4.75C6.6385 3.76342 7.4801 3 8.5 3H11.5C12.5269 3 13.373 3.77394 13.487 4.77035C13.4862 4.76355 13.4854 4.75677 13.4845 4.75H13.75C14.9926 4.75 16 5.75736 16 7V14.75C16 15.9926 14.9926 17 13.75 17H6.25C5.00736 17 4 15.9926 4 14.75V7C4 5.75736 5.00736 4.75 6.25 4.75H6.51547ZM8.5 4.5H11.5C11.7761 4.5 12 4.72386 12 5V6C12 6.27614 11.7761 6.5 11.5 6.5H8.5C8.22386 6.5 8 6.27614 8 6V5C8 4.72386 8.22386 4.5 8.5 4.5ZM6.51304 6.22965C6.51382 6.23645 6.51463 6.24323 6.51547 6.25H6.25C5.83579 6.25 5.5 6.58579 5.5 7V14.75C5.5 15.1642 5.83579 15.5 6.25 15.5H13.75C14.1642 15.5 14.5 15.1642 14.5 14.75V7C14.5 6.58579 14.1642 6.25 13.75 6.25H13.4845C13.3615 7.23658 12.5199 8 11.5 8H8.5C7.4731 8 6.62695 7.22606 6.51304 6.22965Z" fill="#4A4A4A"/>
</svg>

<svg viewBox="0 0 20 20" xmlns="http://www.w3.org/2000/svg"><path d="M13.28 9.22a.75.75 0 0 1 0 1.06l-3.5 3.5a.75.75 0 0 1-1.06 0l-1.75-1.75a.75.75 0 1 1 1.06-1.06l1.22 1.22 2.97-2.97a.75.75 0 0 1 1.06 0Z" fill="#5C5F62"/><path fill-rule="evenodd" d="M6.515 4.75a2 2 0 0 1 1.985-1.75h3a2 2 0 0 1 1.985 1.75h.265a2.25 2.25 0 0 1 2.25 2.25v7.75a2.25 2.25 0 0 1-2.25 2.25h-7.5a2.25 2.25 0 0 1-2.25-2.25v-7.75a2.25 2.25 0 0 1 2.25-2.25h.265Zm1.985-.25h3a.5.5 0 0 1 .5.5v1a.5.5 0 0 1-.5.5h-3a.5.5 0 0 1-.5-.5v-1a.5.5 0 0 1 .5-.5Zm-1.987 1.73.002.02h-.265a.75.75 0 0 0-.75.75v7.75c0 .414.336.75.75.75h7.5a.75.75 0 0 0 .75-.75v-7.75a.75.75 0 0 0-.75-.75h-.265a2 2 0 0 1-1.985 1.75h-3a2 2 0 0 1-1.987-1.77Z" fill="#5C5F62"/></svg>
